other/log28.svg

<svg xmlns="http://www.w3.org/2000/svg" viewBox="0 0 48 48">
    <defs>
        <style>
            .a{
            fill:none;
            stroke:#fff;
            stroke-linecap:round;
            stroke-linejoin:round;
            }
            </style>
        </defs><path
     class="a"
     d="m 40.5,5.5 h -33 a 2,2 0 0 0 -2,2 v 33 a 2,2 0 0 0 2,2 h 33 a 2,2 0 0 0 2,-2 v -33 a 2,2 0 0 0 -2,-2 z M 29,35.5 H 11 m 26.000009,6.954384 v -4.74087 h -2.234191 c -1.116766,0 -2.015821,-0.899055 -2.015821,-2.01582 v -0.537553 c 0,-1.116765 0.899055,-2.01582 2.015821,-2.01582 v 0 h 2.234191 l -1.9e-5,-6.680655 H 34.515821 C 33.399056,26.463666 32.5,25.56461 32.5,24.447846 v -0.537553 c 0,-1.116765 0.899056,-2.015822 2.015821,-2.015822 h 2.484169 v -6.930662 l -2.484169,-10e-7 C 33.399056,14.963808 32.5,14.064751 32.5,12.947986 v -0.537553 c 0,-1.116764 0.899056,-2.015822 2.015821,-2.015822 H 36.99999 V 5.5413895 M 29,24.5 H 11 m 13,-11 H 11" />
</svg>

<?xml version="1.0" encoding="UTF-8"?><svg id="a" xmlns="http://www.w3.org/2000/svg" viewBox="0 0 48 48"><defs><style>.b{fill:none;stroke:#fff;stroke-linecap:round;stroke-linejoin:round;}</style></defs><path class="b" d="m40.5,5.5H7.5c-1.1046,0-2,.8954-2,2v33c0,1.1046.8954,2,2,2h33c1.1046,0,2-.8954,2-2V7.5c0-1.1046-.8954-2-2-2Zm-11.5,30H11m26,6.9544v-4.7409h-2.2342c-1.1168,0-2.0158-.8991-2.0158-2.0158v-.5376c0-1.1168.8991-2.0158,2.0158-2.0158h2.2342v-6.6807h-2.4842c-1.1168,0-2.0158-.8991-2.0158-2.0158v-.5376c0-1.1168.8991-2.0158,2.0158-2.0158h2.4842v-6.9307h-2.4842c-1.1168,0-2.0158-.8991-2.0158-2.0158v-.5376c0-1.1168.8991-2.0158,2.0158-2.0158h2.4842v-4.8532m-8,18.9586H11m13-11h-13"/></svg>
